resources/images/icons/circle-information.svg

<svg fill="none" height="24" viewBox="0 0 24 24" width="24" xmlns="http://www.w3.org/2000/svg"><g fill="#0d0d0d"><path d="m12 4c-4.41828 0-8 3.58172-8 8 0 4.4183 3.58172 8 8 8 4.4183 0 8-3.5817 8-8 0-4.41828-3.5817-8-8-8zm-10 8c0-5.52285 4.47715-10 10-10 5.5228 0 10 4.47715 10 10 0 5.5228-4.4772 10-10 10-5.52285 0-10-4.4772-10-10z" xmlns="http://www.w3.org/2000/svg"/><path d="m12 10c.5523 0 1 .4477 1 1v6c0 .5523-.4477 1-1 1s-1-.4477-1-1v-6c0-.5523.4477-1 1-1z" xmlns="http://www.w3.org/2000/svg"/><path d="m13.5 7.5c0 .82843-.6716 1.5-1.5 1.5s-1.5-.67157-1.5-1.5.6716-1.5 1.5-1.5 1.5.67157 1.5 1.5z" xmlns="http://www.w3.org/2000/svg"/></g></svg>

<svg fill="none" viewBox="0 0 24 24" height="24" width="24" xmlns="http://www.w3.org/2000/svg">
<path xmlns="http://www.w3.org/2000/svg" d="M12 4C7.58172 4 4 7.58172 4 12C4 16.4183 7.58172 20 12 20C16.4183 20 20 16.4183 20 12C20 7.58172 16.4183 4 12 4ZM2 12C2 6.47715 6.47715 2 12 2C17.5228 2 22 6.47715 22 12C22 17.5228 17.5228 22 12 22C6.47715 22 2 17.5228 2 12Z" fill="#0D0D0D"></path>
<path xmlns="http://www.w3.org/2000/svg" d="M12 10C12.5523 10 13 10.4477 13 11V17C13 17.5523 12.5523 18 12 18C11.4477 18 11 17.5523 11 17V11C11 10.4477 11.4477 10 12 10Z" fill="#0D0D0D"></path>
<path xmlns="http://www.w3.org/2000/svg" d="M13.5 7.5C13.5 8.32843 12.8284 9 12 9C11.1716 9 10.5 8.32843 10.5 7.5C10.5 6.67157 11.1716 6 12 6C12.8284 6 13.5 6.67157 13.5 7.5Z" fill="#0D0D0D"></path>
</svg>
